X: 83
T: Aman Cânâ Beni Şâd Et
C: Fehmi Tokay
O: Turkey
F: http://compmusic.upf.edu/node/140
N: buselik--sarki--curcuna--aman_cana--fehmi_tokay
N: makam= buselik
N: form= sarki
N: usul= curcuna = 10/8
M: 10/8
L: 1/16
K: C    
Q: 1/4=180
%%MIDI tuningsystem comma53
z4 B2c4.B4c6  | z4 B2c4d4e6  | z4 d2d4d4ed cBc2  | \
w:   |   |   | 
z4 e2c2 B2BA A^GA6  | 
w:   | 
z4 B2c4.B4c6  | z4 B2c4d4e6  | z4 d2d4d4ed cBc2  | \
w:   |   |   | 
z4 e2c2 B2BA A^GA6  | 
w:   | 
z4 B2c3BBA2^GA6  | z4 B2c4d3ee6  | z4 d2e4e4e2 f2g2  | 
w:  A man  *  câ *  *  nâ   |  be ni  şâd_ *  et    |  Te rah hüm  ey  | 
e2d2 e2d2 c2d3ee6  | z4 B2c3BBA2^GA6  | \
w:  *  *  le  im *  dad_ *  et    |  A man  *  câ *  *  nâ   | 
z4 B2c4d3ee6  | 
w:  be ni  şâd_ *  et    | 
z4 d2e4e4e2 f2g2  | e2d2 e2d2 c2d3ee3.f.e._e  | \
w:  Te rah hüm  ey  |  *  *  le  im *  dad_ *  et   SAZ  | 
z4 d2d4d4ed cBc2  | 
w:  Di sen  terk_  | 
c4 d2e3dc3Bc6  | z4 B2c4{d}c2 B2B6  | \
w:  *  i  kast_ *  ey *  le    |  Ba na  *  sen  *  kıy  | 
B4 d2c2 B2A2 ^GAB6  | 
w:  *  ma  a *  zâd_ *  *  et    | 
z4 d2d4d4ed cBc2  | c4 d2e3dc3Bc6  | \
w:  Di sen  terk_  |  *  i  kast_ *  ey *  le    | 
z4 B2c4{d}c2 B2B6  | 
w:  Ba na  *  sen  *  kıy  | 
B4 d2c2 B2A2 {B}A^GA6  | |


